X:1
T: Jim Moore's Fancy
C:
R:Reel
Q: 232
K:Am
M:4/4
L:1/8
|:AB AG AB cd|e^f ed ef g2|G2 BG dG BG|Ac BA GE DG|
AB AG AB cd|e^f ed ef g2|a^f gf eg fa|ge dB BA A2:|
|:a2 bg a2 bg|ac' ca ge e^f|g2 a^f g2 af|gb a^f gf ed|
ag bg ag bg|ac' ba ge e^f|g^f ed ((3efg) fa|ge dB BA A2:|
